!!!COM: Hugo Wolf
!!!CNT: Deutscher
!!!TXO: Deutsche 
!!!OTL: Lieber Alles
!!!ODT: 1888/09/29
!!!ONM: No. 11
!!!LYR: Joseph von Eichendorff
!!!ENC: Brian Bice
!!!YOR: 45 Songs on Poems of Goethe and Eichendorff, Dover Publications, 1995
!!NB: Vocal melody and text only encoded.
**kern	**silbe
*clefG2	*
*k[f#]	*
*M6/8	*
=10	=10
4r;	.
8r	.
4r	.
{8d	{Sol-
=11	=11
4g	-dat
8g	sein
8r	.
8g	ist
8g	ge-
=12	=12
8b	-fa2hr-
8a#}	-lich,}
8r	.
4r	.
{8a#	{stu-
=13	=13
4b	-die-
8b	-ren
4dd	sehr
8cc	be-
=14	=14
4b	-schwer-
8a#}	-lich,}
4r	.
{8cc#	{das
=15	=15
4dd	Dich-
8dd	-ten
4dd	su2ss
8ee	und
=16	=16
8dd	zier-
8cc#}	-lich,}
8r	.
4r	.
{8ee	{der
=17	=17
4ffn	Dich-
8ffn	-ter
4ffn	gar
8ffn	pos-
=18	=18
8ffn	-sier-
8ee	-lich
8dd	in
(8cc#	die-
8dd)	|
8ee	-sen
=19	=19
([4.b-	wil-
8b-]	|
8bn)	|
8cc#	-den
=20	=20
8dd	Zei-
8d}	-ten.}
8r	.
4r	.
{(16b-	{Ich
16ccn)	|
=21	=21
4dd	mo2cht'
8dd	am
4dd	lieb-
8dd	-sten
=22	=22
4dd	rei-
8cc#	-ten,
4r	.
8cc#	ein
=23	=23
4dd	gu-
8dd	-tes
4ffn	Schwert
8dd	zur
=24	=24
4cc#	Sei-
8b}	-ten,}
4r	.
{8b	{die
=25	=25
4ee	Lau-
8ee	-te
4ee	in
8ee	der
=26	=26
4ee	Rech-
8a	-ten,
4r	.
8a	Stu-
=27	=27
4ffn	-den-
8ffn	-ten-
4ffn	-herz
8ffn	zum
=28	=28
4ffn	Fech-
8g}	-ten.}
4r	.
{8e-	{Ein
=29	=29
4a-	wil-
8cc	-des
4ee-	Ross
8ffn	ist's
=30	=30
4ee-	Le-
8cc	-ben,
4r	.
8a-	die
=31	=31
4g	Hu-
8cc	-fe
4een	Fun-
8ffn	-ken
=32	=32
4ee	ge-
8cc}	-ben,}
4r	.
{8cc	{wer's
=33	=33
4ffn	her-
8ffn	-lich
8ffn	wagt,
8ee	|
8dd#	be-
=34	=34
4.ee	-zwingt
4a	es,
8ee	und
=35	=35
4dd	wo
8gg	es
4dd	tritt,
8ee	da
=36	=36
4ff	klingt
8gg}	es!}
4r	.
8r	.
*-	*-
